main/svg/leaves6a.svg

<svg xmlns="http://www.w3.org/2000/svg" width="32" height="32"><path d="M12 8a4 4 0 1 1-8 0 4 4 0 0 1 8 0Zm16 0a4 4 0 1 1-8 0 4 4 0 0 1 8 0Zm-8 8a4 4 0 0 1-4 4 4 4 0 1 1 4-4Zm8 8a4 4 0 0 1-4 4 4 4 0 1 1 4-4Zm-16 0a4 4 0 0 1-4 4 4 4 0 0 1-4-4 4 4 0 1 1 8 0Zm0 0" style="stroke:none;fill-rule:nonzero;fill:#000;fill-opacity:1"/></svg>

<svg xmlns="http://www.w3.org/2000/svg" width="32" height="32"><path d="M12 8a4 4 0 1 1-8 0A4 4 0 0 1 12 8Zm16 0A4 4 0 1 1 20 8 4 4 0 0 1 28 8Zm-8 8A4 4 0 0 1 16 20 4 4 0 1 1 20 16Zm8 8A4 4 0 0 1 24 28 4 4 0 1 1 28 24ZM12 24a4 4 0 0 1-4 4A4 4 0 0 1 4 24 4 4 0 1 1 12 24Zm0 0" style="stroke:none;fill-rule:nonzero;fill:#000;fill-opacity:1"/></svg>
